svgs/solid/books.svg

<svg xmlns="http://www.w3.org/2000/svg" viewBox="0 0 512 512"><!-- Font Awesome Pro 6.0.0-alpha2 by @fontawesome - https://fontawesome.com License - https://fontawesome.com/license (Commercial License) --><path d="M160.002 384.001H288V128.002H160.002V384.001ZM96.002 0.003H32C14.375 0.003 0 14.378 0 32.003V96.003H128.002V32.003C128.002 14.378 113.627 0.003 96.002 0.003ZM160.002 480C160.002 497.625 174.377 512 192.004 512H256.004C273.623 512 287.988 497.641 288 480.02V416.001H160.002V480ZM0 480C0 497.625 14.375 512 32 512H96.002C113.627 512 128.002 497.625 128.002 480V416.001H0V480ZM0 384.001H128.002V128.002H0V384.001ZM419.869 116.155L296.318 149.198L362.531 395.848L486.08 362.806L419.869 116.155ZM510.914 455.317L494.357 393.634L370.807 426.68L387.359 488.344C391.918 505.32 409.512 515.461 426.525 510.91L488.301 494.391C505.309 489.84 515.461 472.297 510.914 455.317ZM395.035 23.644C390.467 6.667 372.887 -3.458 355.879 1.089L294.104 17.612C291.031 18.433 288.484 20.097 285.906 21.683C281.559 9.159 269.975 0.003 256.004 0.003H192.004C174.377 0.003 160.002 14.378 160.002 32.003V96.003H282.039L288.043 118.37L411.592 85.323L395.035 23.644Z"/></svg>

<svg xmlns="http://www.w3.org/2000/svg" viewBox="0 0 576 512"><!-- Font Awesome Pro 5.15.1 by @fontawesome - https://fontawesome.com License - https://fontawesome.com/license (Commercial License) --><path d="M575.11 443.25L461.51 19.06C458.2 6.7 445.61-3.18 430.15.96L414.7 5.1c-6.18 1.66-11.53 6.4-16.06 14.24-14.03 6.94-52.3 17.21-68 18.22-7.84-4.53-14.85-5.96-21.03-4.3l-15.46 4.14c-2.42.65-4.2 1.95-6.15 3.08V32c0-17.67-14.33-32-32-32h-64c-17.67 0-32 14.33-32 32v64h128l101.66 396.94c3.31 12.36 15.9 22.24 31.36 18.1l15.45-4.14c6.18-1.66 11.53-6.4 16.06-14.24 13.91-6.88 52.18-17.2 68-18.22 7.84 4.53 14.85 5.96 21.03 4.3l15.46-4.14c15.45-4.14 21.41-18.99 18.09-31.35zm-134.4-7.06L348.64 92.37l61.82-16.56 92.07 343.82-61.82 16.56zM0 384h128V128H0v256zM96 0H32C14.33 0 0 14.33 0 32v64h128V32c0-17.67-14.33-32-32-32zM0 480c0 17.67 14.33 32 32 32h64c17.67 0 32-14.33 32-32v-64H0v64zm160-96h128V128H160v256zm0 96c0 17.67 14.33 32 32 32h64c17.67 0 32-14.33 32-32v-64H160v64z"/></svg>
